X: 993
T: Lock The Door
T: Cuir Glas Air An Doras
R:double jig
C:"collected by O'Reilly"
S:993 O'Neill's Music of Ireland
B:O'Neill's 993
Z:Transcribed by Robert Thorpe (thorpe@skep.com)
Z:ABCMUS 1.0
M:6/8
K:Em
z|EFE BAG|FDF AGF|EFE BAG|AGF E3|
|EFE BAG|FDF AGF|B/-c/-dB AGF|E3 E2:|
A|B2 ^c d2 e|d2 B AFD|B2 ^c d2 e|fdB fdB|
|B2 ^c d2 e|dcB AFA|B/-^c/-dB AGF E3 E2:|
E|E2 B E2 B|E2 B BAB|E2 B E2 B|AGF E3|
|E2 B E2 B|E2 B BAB|dcB AGF|E3 E2:|


